src/dsmComponents/Icons/device-mobile-disconnected-12px.svg

<?xml version="1.0" encoding="UTF-8"?>
<svg width="12px" height="12px" viewBox="0 0 12 12" version="1.1" xmlns="http://www.w3.org/2000/svg" xmlns:xlink="http://www.w3.org/1999/xlink">
    <!-- Generator: Sketch 59.1 (86144) - https://sketch.com -->
    <title>device-mobile-disconnected-12px</title>
    <desc>Created with Sketch.</desc>
    <defs>
        <path d="M4.8194769,10.1247 L7.0694769,10.1247 C7.2764769,10.1247 7.4444769,9.9567 7.4444769,9.7497 C7.4444769,9.5427 7.2764769,9.3747 7.0694769,9.3747 L4.8194769,9.3747 C4.6124769,9.3747 4.4444769,9.5427 4.4444769,9.7497 C4.4444769,9.9567 4.6124769,10.1247 4.8194769,10.1247 M8.5863519,10.1247 C8.5863519,10.53945 8.2511019,10.8747 7.8363519,10.8747 L4.0818519,10.8747 C3.6678519,10.8747 3.3318519,10.53945 3.3318519,10.1247 L3.3318519,3.5592 L8.5863519,7.9677 L8.5863519,10.1247 Z M0.328101896,0.12345 C0.433851896,-0.0033 0.622851896,-0.01905 0.749601896,0.08595 L0.749601896,0.08595 L11.7813519,9.3432 C11.9088519,9.4497 11.9246019,9.6387 11.8196019,9.76545 L11.8196019,9.76545 L11.5608519,10.07295 C11.4543519,10.1997 11.2653519,10.21545 11.1386019,10.10895 L11.1386019,10.10895 L10.4441019,9.5262 L9.6948519,8.89695 L9.6948519,10.4997 C9.6948519,11.3277 9.0228519,11.9997 8.1948519,11.9997 L8.1948519,11.9997 L3.6948519,11.9997 C2.8661019,11.9997 2.1948519,11.3277 2.1948519,10.4997 L2.1948519,10.4997 L2.1948519,2.60445 L1.4441019,1.9752 L0.106851896,0.8532 C-0.0198981039,0.74595 -0.0363981039,0.55695 0.0708518961,0.4302 L0.0708518961,0.4302 Z M8.1948519,0 C9.0228519,0 9.6948519,0.67125 9.6948519,1.5 L9.6948519,1.5 L9.6948519,6.2895 L8.5863519,5.36025 L8.5863519,1.90875 C8.5863519,1.494 8.2503519,1.15875 7.8363519,1.15875 L7.8363519,1.15875 L4.0818519,1.15875 C3.9453519,1.15875 3.8223519,1.20525 3.7121019,1.26975 L3.7121019,1.26975 L2.6793519,0.4035 C2.9456019,0.1545 3.2996019,0 3.6948519,0 L3.6948519,0 Z" id="path-1"></path>
    </defs>
    <g id="Final" stroke="none" stroke-width="1" fill="none" fill-rule="evenodd">
        <g id="All-Nucleo-Icons" transform="translate(-174.000000, -2205.000000)">
            <g id="Solo/Nucleo/12px/device-mobile-disconnected" transform="translate(168.000000, 2199.000000)">
                <g id="phone-not-connected" transform="translate(6.000000, 6.000000)">
                    <g id="Colour/Default-Colour">
                        <mask id="mask-2" fill="white">
                            <use xlink:href="#path-1"></use>
                        </mask>
                        <use id="Mask" fill="#555555" xlink:href="#path-1"></use>
                        <g id="colour/neutral/chia" mask="url(#mask-2)" fill="#737373">
                            <g transform="translate(-18.000000, -18.000000)" id="Colour">
                                <rect x="0" y="0" width="48" height="48"></rect>
                            </g>
                        </g>
                    </g>
                </g>
            </g>
        </g>
    </g>
</svg>

<svg width="12" height="12" xmlns="http://www.w3.org/2000/svg" xmlns:xlink="http://www.w3.org/1999/xlink"><defs><path d="M4.82 10.125h2.25a.375.375 0 000-.75H4.82a.375.375 0 000 .75m3.766 0a.75.75 0 01-.75.75H4.082a.75.75 0 01-.75-.75V3.559l5.254 4.409v2.157zM.328.123A.3.3 0 01.75.086l11.03 9.257a.3.3 0 01.039.422l-.26.308a.3.3 0 01-.421.036l-.695-.583-.75-.629V10.5a1.5 1.5 0 01-1.5 1.5h-4.5a1.5 1.5 0 01-1.5-1.5V2.604l-.75-.629L.107.853A.3.3 0 01.07.43zM8.195 0a1.5 1.5 0 011.5 1.5v4.79l-1.109-.93V1.91a.75.75 0 00-.75-.75H4.082a.73.73 0 00-.37.11L2.68.405C2.946.153 3.3 0 3.695 0z" id="device-mobile-disconnected-12px_svg__a"/></defs><use fill="#737373" xlink:href="#device-mobile-disconnected-12px_svg__a" fill-rule="evenodd"/></svg>
